X:1000
M:C
L:1/8
Q:1/4=100
K:D
     DAFA    BEEF/E/  |DAFd        Afda  |{g}f>e d/e/f/d/ eEEF/G/  |AdFA   {A}d2d2     ||
f/g/|a>d'f>a beef/g/  |a>d'f>g     abf>d'|   a<f{f}d'a    g(ee)f/g/|a>d'Ta>b Taafg      |
     ad'f>a  b(ee)f/g/|ab/c'/ d'c' bagf  |{g}f>e{de}f>d   eEEF/G/  |A>d AG/F/ A2Ad     ||
